newicons/major_cineplex.svg

<?xml version="1.0" encoding="UTF-8"?><svg id="a" xmlns="http://www.w3.org/2000/svg" viewBox="0 0 48 48"><defs><style>.b{fill:none;stroke:#fff;stroke-linecap:round;stroke-linejoin:round;}</style></defs><path class="b" d="M21.9476,42.181V12.5258h-4.3919v29.7582M34.4212,11.6538v.872M34.4212,12.5258v29.5532M30.3813,42.285V12.5258M30.3813,12.5258h-4.3929v29.6562M13.5148,42.08V12.5268M13.5148,12.5268v-.883h.055M13.5708,11.6438l-2.1609-3.7389h10.4267M26.1004,7.9049h10.4897M36.5902,7.9049l-2.1679,3.7479M30.3793,42.285l-1.07,1.215h1.07M30.3793,43.5h4.0409M34.4202,43.5h1.252l-1.252-1.42M13.5128,42.08l-1.25,1.42h1.251M13.5138,43.5h4.0399M17.5537,43.5h1.071l-1.07-1.215M21.9465,42.182l-1.16,1.317h1.161M21.9475,43.499h4.0399M25.9874,43.499h1.162l-1.162-1.318M21.8356,7.9059l-2.8799-3.4059h10.0237l-2.8799,3.4059"/></svg>

<svg xmlns="http://www.w3.org/2000/svg" xml:space="preserve" width="48" height="48"><path fill="none" stroke="#fff" stroke-linecap="round" stroke-linejoin="round" d="M21.948 42.182V12.526h-4.392v29.759m16.866-30.631v.872m0 0V42.08m-4.04.206v-29.76m0 0h-4.393v29.657m-12.474-.102V12.527m0 0v-.883h.055m.001 0L11.41 7.905h10.427m4.264 0h10.49m0 0-2.168 3.748M30.38 42.286l-1.07 1.215h1.07m0 0h4.041m0 0h1.252l-1.252-1.42m-20.908 0-1.25 1.42h1.251m0 0h4.04m0 0h1.071l-1.07-1.215m4.392-.103-1.16 1.317h1.161m0 0h4.04m0 0h1.162l-1.162-1.318M21.836 7.906 18.956 4.5H28.98v0L26.1 7.906"/></svg>
